train-car-intermodal.svg

<svg  viewBox="0 0 24 24" fill="currentColor"><path  d="M21 15V11H3V15H1V17H2C2 18.11 2.9 19 4 19S6 18.11 6 17H18C18 18.11 18.9 19 20 19S22 18.11 22 17H23V15H21M16 14H8V13H16V14M21 5H3V10H21V5M16 8H8V7H16V8Z"/></svg>

<svg fill="currentColor" viewBox="0 0 24 24"><path d="M21 15v-4H3v4H1v2h1a2 2 0 1 0 4 0h12a2 2 0 1 0 4 0h1v-2zm-5-1H8v-1h8zm5-9H3v5h18zm-5 3H8V7h8z"/></svg>
